X: 009
T: Sally's Wish
B: 204 Favourite Country Dances
N: Published by Straight & Skillern, London ca.1775
F: http://imslp.org/wiki/204_Favourite_Country_Dances_(Various) p.5 #9
Z: 2014 John Chambers <jc:trillian.mit.edu>
M: C
L: 1/8
K: A
%  - - - - - - - - - - - - - - - - - - - - - - - - -
e2 |\
cBAG Acea | fgaf ecBA | GABc dBcA | GABc B2f2 |\
cBAG Acea | fgaf ecBA | dfBd ceEG | A2A2 A2 :|
|: e2 |\
cBAG Aea=g | fedc d2f2 | fe^dc Bc'ba | gfed e2g2 |\
aecA fagf | edcB d2cB | caBd cAEG | A2A2 A2 :|
%  - - - - - - - - - - - - - - - - - - - - - - - - -
%%begintext align
%% Cast off 2 Cu. cast up again cross over 2 Cu. lead
%% up & cast off set corners & turn lead outsides
%%endtext

%%sep 1 1 500
%%sep 1 1 500
